symbols/web/bus_alert/materialsymbolssharp/bus_alert_wght300fill1_20px.svg

<svg xmlns="http://www.w3.org/2000/svg" height="20" width="20"><path d="M5.438 14.021q.458 0 .77-.313.313-.312.313-.77 0-.459-.313-.771-.312-.313-.77-.313-.459 0-.771.313-.313.312-.313.771 0 .458.313.77.312.313.771.313Zm5.729 0q.458 0 .771-.313.312-.312.312-.791 0-.438-.312-.75-.313-.313-.771-.313-.459 0-.771.313-.313.312-.313.75 0 .479.313.791.312.313.771.313Zm3.625-5q-1.604 0-2.698-1.094Q11 6.833 11 5.229q0-1.604 1.094-2.698 1.094-1.093 2.698-1.093 1.604 0 2.698 1.093 1.093 1.094 1.093 2.698 0 1.604-1.093 2.698-1.094 1.094-2.698 1.094Zm-.375-3.083h.729v-2.98h-.729Zm.354 1.562q.167 0 .291-.115.126-.114.126-.281 0-.166-.126-.292-.124-.124-.291-.124-.167 0-.281.124-.115.126-.115.292 0 .167.115.281.114.115.281.115ZM3.062 17.917v-2.292q-.374-.292-.677-.844-.302-.552-.302-1.198V5.896q0-.646.292-1.24t1.115-1.01q.822-.417 2.291-.615 1.469-.198 3.823-.114-.437.812-.5 1.791-.062.98.167 1.875H3.417v2.938h7.875q.646.646 1.52 1.021.876.375 1.771.375v2.666q0 .646-.302 1.198-.302.552-.677.844v2.292h-1.916v-1.646H4.979v1.646Z"/></svg>

<svg xmlns="http://www.w3.org/2000/svg" height="20" width="20"><path d="M5.438 14.021Q5.896 14.021 6.208 13.708Q6.521 13.396 6.521 12.938Q6.521 12.479 6.208 12.167Q5.896 11.854 5.438 11.854Q4.979 11.854 4.667 12.167Q4.354 12.479 4.354 12.938Q4.354 13.396 4.667 13.708Q4.979 14.021 5.438 14.021ZM11.167 14.021Q11.625 14.021 11.938 13.708Q12.25 13.396 12.25 12.917Q12.25 12.479 11.938 12.167Q11.625 11.854 11.167 11.854Q10.708 11.854 10.396 12.167Q10.083 12.479 10.083 12.917Q10.083 13.396 10.396 13.708Q10.708 14.021 11.167 14.021ZM14.792 9.021Q13.188 9.021 12.094 7.927Q11 6.833 11 5.229Q11 3.625 12.094 2.531Q13.188 1.438 14.792 1.438Q16.396 1.438 17.49 2.531Q18.583 3.625 18.583 5.229Q18.583 6.833 17.49 7.927Q16.396 9.021 14.792 9.021ZM14.417 5.938H15.146V2.958H14.417ZM14.771 7.5Q14.938 7.5 15.062 7.385Q15.188 7.271 15.188 7.104Q15.188 6.938 15.062 6.812Q14.938 6.688 14.771 6.688Q14.604 6.688 14.49 6.812Q14.375 6.938 14.375 7.104Q14.375 7.271 14.49 7.385Q14.604 7.5 14.771 7.5ZM3.062 17.917V15.625Q2.688 15.333 2.385 14.781Q2.083 14.229 2.083 13.583V5.896Q2.083 5.25 2.375 4.656Q2.667 4.062 3.49 3.646Q4.312 3.229 5.781 3.031Q7.25 2.833 9.604 2.917Q9.167 3.729 9.104 4.708Q9.042 5.688 9.271 6.583H3.417V9.521H11.292Q11.938 10.167 12.812 10.542Q13.688 10.917 14.583 10.917V13.583Q14.583 14.229 14.281 14.781Q13.979 15.333 13.604 15.625V17.917H11.688V16.271H4.979V17.917Z"/></svg>
